img/svg/logos/9.svg

<svg width="55" height="51" viewBox="0 0 55 51" fill="none" xmlns="http://www.w3.org/2000/svg">
<path d="M0.265625 20.4398L54.5301 0.484131V30.3554L0.265625 50.3114V20.4398Z" fill="#444444"/>
<path d="M8.59323 31.8257H7.71512V30.606H7.80926C10.3341 30.606 9.95775 27.2644 8.23275 27.2644H6.80544V26.0248H8.21698C9.44033 26.0248 9.73833 23.2795 8.045 23.2795H6.20965V30.606H7.71522V31.8257H3.82553V23.1696H2.90039V22.0713H8.71883C10.3656 22.0713 11.1654 23.2167 11.1654 24.3308C11.1654 25.2247 10.4443 26.1237 9.80317 26.1237C9.80317 26.1237 11.5418 26.6683 11.5418 28.9428C11.5416 30.5027 10.5852 31.8257 8.59323 31.8257Z" fill="white"/>
<path d="M16.089 29.0841H14.443L13.2513 31.6886H11.3223L15.6038 22.2124H16.8408L20.8557 31.6886H18.8443L17.731 29.0841H16.089V27.9703H17.2818L16.089 25.0522L14.7724 27.9703H16.089V29.0841Z" fill="white"/>
<path d="M23.9387 22.2124H22.0566V31.6885H23.9387V22.2124Z" fill="white"/>
<path d="M31.8677 26.9484C31.8677 26.9484 33.4295 27.5146 33.6177 29.962C33.7519 31.7064 34.59 32.5977 36.0014 32.8485V33.6957C33.7747 33.8369 32.0103 32.6639 31.5787 30.2128C31.1711 27.8964 30.2613 27.2646 30.2613 27.2646H29.4446V26.124H30.2613C31.5401 26.124 31.7989 23.3111 30.0496 23.3111H28.1978V31.6888H26.3157V23.1934H25.4453V22.2124H30.8796C34.0555 22.2123 33.6085 26.9484 31.8677 26.9484Z" fill="white"/>
<path d="M35.083 22.2124H39.9133C45.4969 22.2124 44.9006 31.6885 39.9133 31.6885H36.1494V26.7778H38.4078V30.6373C38.4078 30.6373 42.1093 31.1095 42.1093 26.9503C42.1093 22.7912 38.4078 23.389 38.4078 23.389V26.7778H36.1494V23.389H35.0831L35.083 22.2124Z" fill="white"/>
</svg>

<svg width="55" height="51" viewBox="0 0 55 51" fill="none" xmlns="http://www.w3.org/2000/svg"><path d="M.266 20.44L54.53.484v29.871L.266 50.311V20.44z" fill="#444"/><path d="M8.593 31.826h-.878v-1.22h.094c2.525 0 2.149-3.342.424-3.342H6.805v-1.24h1.412c1.223 0 1.521-2.745-.172-2.745H6.21v7.327h1.505v1.22h-3.89V23.17H2.9v-1.1h5.82c1.647 0 2.446 1.146 2.446 2.26 0 .894-.72 1.793-1.362 1.793 0 0 1.739.544 1.739 2.819 0 1.56-.957 2.883-2.949 2.883zm7.496-2.742h-1.646l-1.192 2.605h-1.929l4.282-9.477h1.237l4.015 9.477h-2.012l-1.113-2.605h-1.642V27.97h1.193l-1.193-2.918-1.317 2.918h1.317v1.114zm7.85-6.872h-1.882v9.477h1.882v-9.477zm7.929 4.736s1.561.567 1.75 3.014c.134 1.744.972 2.636 2.383 2.887v.847c-2.226.14-3.99-1.032-4.422-3.483-.408-2.317-1.318-2.948-1.318-2.948h-.816v-1.141h.816c1.28 0 1.538-2.813-.211-2.813h-1.852v8.378h-1.882v-8.496h-.87v-.98h5.434c3.176 0 2.729 4.735.988 4.735zm3.215-4.736h4.83c5.584 0 4.988 9.477 0 9.477H36.15v-4.911h2.259v3.86s3.701.471 3.701-3.688-3.701-3.561-3.701-3.561v3.389H36.15v-3.389h-1.066v-1.177z" fill="#fff"/></svg>
